app/images/shop/filters.svg

<svg height="32" width="32" xmlns="http://www.w3.org/2000/svg"><g data-name="Layer 2" id="Layer_2"><path d="M28 9H11a1 1 0 010-2h17a1 1 0 010 2zM7 9H4a1 1 0 010-2h3a1 1 0 010 2zm14 8H4a1 1 0 010-2h17a1 1 0 010 2zm-10 8H4a1 1 0 010-2h7a1 1 0 010 2z"/><path d="M9 11a3 3 0 113-3 3 3 0 01-3 3zm0-4a1 1 0 101 1 1 1 0 00-1-1zm14 12a3 3 0 113-3 3 3 0 01-3 3zm0-4a1 1 0 101 1 1 1 0 00-1-1zM13 27a3 3 0 113-3 3 3 0 01-3 3zm0-4a1 1 0 101 1 1 1 0 00-1-1z"/><path d="M28 17h-3a1 1 0 010-2h3a1 1 0 010 2zm0 8H15a1 1 0 010-2h13a1 1 0 010 2z"/></g><path fill="none" d="M0 0h32v32H0z" id="frame"/></svg>

<?xml version="1.0" ?>
<svg viewBox="0 0 32 32" height="32" width="32" xmlns="http://www.w3.org/2000/svg">
    <defs>
        <style>
        .cls-1{fill:none;}
        </style>
    </defs>
<title/>
    <g data-name="Layer 2" id="Layer_2">
        <path d="M28,9H11a1,1,0,0,1,0-2H28a1,1,0,0,1,0,2Z"/>
        <path d="M7,9H4A1,1,0,0,1,4,7H7A1,1,0,0,1,7,9Z"/>
        <path d="M21,17H4a1,1,0,0,1,0-2H21a1,1,0,0,1,0,2Z"/>
        <path d="M11,25H4a1,1,0,0,1,0-2h7a1,1,0,0,1,0,2Z"/>
        <path d="M9,11a3,3,0,1,1,3-3A3,3,0,0,1,9,11ZM9,7a1,1,0,1,0,1,1A1,1,0,0,0,9,7Z"/>
        <path d="M23,19a3,3,0,1,1,3-3A3,3,0,0,1,23,19Zm0-4a1,1,0,1,0,1,1A1,1,0,0,0,23,15Z"/>
        <path d="M13,27a3,3,0,1,1,3-3A3,3,0,0,1,13,27Zm0-4a1,1,0,1,0,1,1A1,1,0,0,0,13,23Z"/>
        <path d="M28,17H25a1,1,0,0,1,0-2h3a1,1,0,0,1,0,2Z"/>
        <path d="M28,25H15a1,1,0,0,1,0-2H28a1,1,0,0,1,0,2Z"/>
    </g>
<g id="frame"><rect class="cls-1" height="32" width="32"/></g></svg>
